!!!!SEGMENT: pl-wtm--iii-41-944-3_mlynarski-emil--trois-morceaux-pour-piano-op-5-no-3-moment-fugitif.krn
!!!cenid: 18xx:4271
!!!COM: Młynarski, Emil
!!!COM-rismID: pe50043899
!!!CDT: 1870/07/18-1935/04/05
!!!CNT: Polish
!!!OTL: Trois Morceaux pour piano op. 5
!!!PDT: 1894
!!!AGN:
!!!SMS-siglum: PL-Wtm
!!!SMS-shelfmark: III.41.944/3
!!!SMS-shelfwork: W
!!!SMS-variant:
!!!SMS-altvar:
!!!NIFC-rismSourceID: 1001152227
!!!NIFC-rismChildID: 1001152227
!!!NIFC-islandoraID: pl-wtm:22915
!!!URL-pdf-islandora: https://repozytorium.nifc.pl/islandora/object/pl-wtm:22915/datastream/PDF/view
!!!URL-scan: https://polish.musicsources.pl/pl/lokalizacje/galeria/druki-muzyczne/17787/1
!!!IIIF:
!!!ONB-nifc:
!!!OMD: Allegro con brio.
!!!AIN: 1 piano
!!!key: F
**kern	**fing	**kern	**fing	**dynam
*part1	*part1	*part1	*part1	*part1
*staff2	*staff2	*staff1	*staff2	*staff1/2
*I"PIANO.	*	*I"PIANO.	*	*
*I'	*	*I'	*	*
*Ipiano	*	*Ipiano	*	*
*ICklav	*	*ICklav	*	*
*clefF4	*	*clefG2	*	*
*k[b-]	*	*k[b-]	*	*
*F:	*	*F:	*	*
*M3/8	*	*M3/8	*	*
=1	=1	=1	=1	=1
!	!	!LO:TX:t=P:problem=mixed beam	!	!
4ryy	.	(>16CC<LL 16CCC</	.	ff
*	*	*	*below	*
!	!	!LO:TX:b:i:t=m.d.	!	!
.	.	16E<\	1	.
.	.	16B-<\	2	.
.	.	16c<\)	3	.
8d-'>^>/	4	16e<\JJ	5	.
.	.	16ryy	.	.
=2	=2	=2	=2	=2
!	!	!LO:TX:t=P:problem=mixed beam	!	!
4ryy	.	(16B-<LL 16C</	.	.
.	.	16e\	.	.
.	.	16b-\	.	.
.	.	16cc\)	.	.
8dd->'>^>/	.	16ee\JJ	.	.
.	.	16ryy	.	.
*clefG2	*	*	*	*
=3	=3	=3	=3	=3
!	!	!LO:TX:t=P:problem=mixed beam	!	!
4ryy	.	(16b-<LL 16c</	.	.
.	.	16ee\	.	.
.	.	16bb-\	.	.
.	.	16ccc\)	.	.
8ddd->'>^>/	.	16eee\JJ	.	.
.	.	16ryy	.	.
=4	=4	=4	=4	=4
*	*	*^	*	*
*	*	*8va	*	*	*
4.ryy	.	(16bbb-<LL 16ccc</	4ryy	.	.
.	.	16eee\	.	.	.
.	.	16bbb-\	.	.	.
.	.	16cccc\)	.	.	.
.	.	16eeee\JJ	8dddd-'>^>/	.	.
.	.	16ryy	.	.	.
=5	=5	=5	=5	=5	=5
!	!	!	!	!	!LO:DY:t=pp leggiero e brillante
4bb- 4ee\	.	(16ggg/LL	4ccc\	.	pp
.	.	16aaa/J	.	.	.
.	.	8ggg/J)	.	.	.
[8aaL [8dd#X\	.	(16fff#X/LL	[8ccc\L	.	.
.	.	16ggg/J	.	.	.
=6	=6	=6	=6	=6	=6
8aa]J 8dd#\]	.	8fff#X/J)	8ccc\J]	.	.
4gg#X 4ddn\	.	(16fffn/LL	4bbn\	.	.
.	.	16ggg/J	.	.	.
.	.	8fff/J)	.	.	.
!!LO:LB:g=original
=7	=7	=7	=7	=7	=7
4ff 4bn\	.	(16ddd/LL	4gg#X\	.	.
.	.	16eee/J	.	.	.
.	.	8ddd/J)	.	.	.
[8ddL [8g#X\	.	(16bbn/LL	[8ff\L	.	.
.	.	16ccc/J	.	.	.
=8	=8	=8	=8	=8	=8
8dd]J 8g#\]	.	8bb-/J)	8ff\J]	.	.
*	*	*X8va	*	*	*
4bn 4f/	.	(16gg#X/LL	4dd\	.	.
.	.	16aa#X/J	.	.	.
.	.	8gg#/J)	.	.	.
=9	=9	=9	=9	=9	=9
4b-X 4e/	.	(16ggn/LL	4cc\	.	.
.	.	16aan/J	.	.	.
.	.	8gg/J)	.	.	.
[<8anL [8d#X/	.	(16ff#X/LL	[8cc\L	.	.
.	.	16gg/J	.	.	.
=10	=10	=10	=10	=10	=10
8a]J 8d#/]	.	8ff#X/J)	8cc\J]	.	.
4b- 4e/	.	(16gg/LL	4cc\	.	.
.	.	16aa/J	.	.	.
.	.	8gg/J)	.	.	.
=11	=11	=11	=11	=11	=11
4b- 4g 4c/	.	(16ffn/LL	4dd\	.	<
.	.	16gg/J	.	.	.
.	.	8ff/J)	.	.	.
*	*	*8va	*	*	*
[8ddL [8b- [8f/	.	(16bb-/LL	[8ff\L	.	.
.	.	16ccc/J	.	.	.
=12	=12	=12	=12	=12	=12
8dd]J 8b-] 8f/]	.	8bb-/J)	8ff\J]	.	.
4ff 4b-\	.	(16ddd/LL	4bb-\	.	.
.	.	16eee/J	.	.	.
.	.	8ddd/J)	.	.	[
*	*	*X8va	*	*	*
*	*	*v	*v	*	*
!!LO:LB:g=original
=13	=13	=13	=13	=13
*	*	*^	*	*
4b- 4e/	.	(16gg/LL	4cc\	.	.
.	.	16aa/J	.	.	.
.	.	8gg/J)	.	.	.
[<8aL [8d#X/	.	(16ff#X/LL	[8cc\L	.	.
.	.	16gg/J	.	.	.
=14	=14	=14	=14	=14	=14
8a]J 8d#/]	.	8ff#X/J)	8cc\J]	.	.
4b- 4e/	.	(16gg/LL	4cc\	.	.
.	.	16aa/J	.	.	.
.	.	8gg/J)	.	.	.
=15	=15	=15	=15	=15	=15
4b- 4g 4c/	.	(16bb-/LL	4ff 4dd\	.	<
.	.	16ccc/J	.	.	.
.	.	8bb-/J)	.	.	.
[8ddL [8b- [8f/	.	(16ddd/LL	[8bb-L [8ff\	.	.
.	.	16eee/J	.	.	.
=16	=16	=16	=16	=16	=16
8dd]J 8b-] 8f/]	.	8ddd/J)	8bb-]J 8ff\]	.	.
4ff 4dd 4b-\	.	(16fff/LL	4bb-\	.	.
.	.	16ggg/J	.	.	.
.	.	8fff/J)	.	.	[[
=17	=17	=17	=17	=17	=17
4b- 4e/	.	(16gg/LL	4cc\	.	.
.	.	16aa/J	.	.	.
.	.	8gg/J)	.	.	.
[<8aL [8d#X/	.	(16ff#X/LL	[8cc\L	.	.
.	.	16gg/J	.	.	.
=18	=18	=18	=18	=18	=18
8a]J 8d#/]	.	8ff#X/J)	8cc\J]	.	.
4b- 4e/	.	(16gg/LL	4cc\	.	<
.	.	16aa/J	.	.	.
.	.	8gg/J)	.	.	.
*	*	*v	*v	*	*
!!LO:LB:g=original
=19	=19	=19	=19	=19
*	*	*^	*	*
*	*	*8va	*	*	*
4b- 4g 4c/	.	(16ddd/LL	4bb- 4ff\	.	.
.	.	16eee/J	.	.	.
.	.	8ddd/J)	.	.	.
[8ffL [8dd [8b-\	.	(16fff/LL	[8bb-\L	.	.
.	.	16ggg/J	.	.	.
=20	=20	=20	=20	=20	=20
8ff]J 8dd] 8b-\]	.	8fff/J)	8bb-\J]	.	.
4bb- 4ff 4dd\	.	(16bbb-/LL	4fff\	.	.
.	.	16cccc/J	.	.	.
.	.	8bbb-/J)	.	.	[[
=21	=21	=21	=21	=21	=21
4ddd 4bb- 4ff\	.	(16cccc/LL	4fff\	.	mf
.	.	16dddd/J	.	.	.
.	.	8cccc/J)	.	.	.
[8bb-L [8ff [8dd\	.	(16bbb-/LL	[8fff\L	.	.
.	.	16cccc/J	.	.	.
=22	=22	=22	=22	=22	=22
8bb-]J 8ff] 8dd\]	.	8bbb-/J)	8fff\J]	.	.
4ff 4dd 4b-\	.	(16ggg/LL	4ddd\	.	.
.	.	16aaa/J	.	.	.
.	.	8ggg/J)	.	.	.
=23	=23	=23	=23	=23	=23
4dd 4b- 4g\	.	(16fff/LL	4bb-\	.	.
.	.	16ggg/J	.	.	.
.	.	8fff/J)	.	.	.
[8b-L [>8g [8f/	.	(16ddd/LL	[8gg\L	.	.
.	.	16eee/J	.	.	.
=24	=24	=24	=24	=24	=24
8b-]J 8g] 8f/]	.	8ddd/J)	8gg\J]	.	.
4b- 4g 4d/	.	(16bb-/LL	4ff\	.	.
.	.	16ccc/J	.	.	.
.	.	8bb-/J)	.	.	.
*	*	*X8va	*	*	*
!!LO:LB:g=original
=25	=25	=25	=25	=25	=25
4g 4d 4B-/	.	(16gg/LL	4dd\	.	.
.	.	16aa/J	.	.	.
.	.	8gg/J)	.	.	.
[8fL [8d [8G/	.	(16ff/LL	[8b-\L	.	<
.	.	16gg/J	.	.	.
=26	=26	=26	=26	=26	=26
8f]J 8d] 8G/]	.	8ff/J)	8b-\J]	.	.
*clefF4	*	*	*	*	*
4d 4B- 4F\	.	(16dd/LL	4g\	.	.
.	.	16ee/J	.	.	.
.	.	8dd/J)	.	.	.
=27	=27	=27	=27	=27	=27
4B- 4G 4D\	.	(16b-/LL	4f\	.	.
.	.	16cc/J	.	.	.
.	.	8b-/J)	.	.	.
[8GL [8D [8BB-\	.	(16g/LL	[8d\L	.	.
.	.	16a/J	.	.	.
=28	=28	=28	=28	=28	=28
8G]J 8D] 8BB-\]	.	8g/J)	8d\J]	.	.
4F 4GG/	.	(16f/LL	4d- 4B-\	.	.
.	.	16g/J	.	.	.
.	.	8f/J)	.	.	.
*clefF4	*	*	*	*	*
*	*	*v	*v	*	*
=29	=29	=29	=29	=29
8CC 8CCC'/	.	8r	.	ff
4c 4B- 4F^\	.	4ff 4cc 4b- 4f^\	.	.
=30	=30	=30	=30	=30
8CC 8CCC'/	.	8r	.	.
4c 4B- 4F^\	.	4ff 4cc 4b- 4f^\	.	.
=31	=31	=31	=31	=31
8CC 8CCC'/	.	8r	.	.
[4g#X [4e [4c [4G#X\	.	[4ccc [4gg#X [4ee [4cc\	.	.
=32	=32	=32	=32	=32
4g#] 4e] 4c] 4G#\]	.	4ccc] 4gg#] 4ee] 4cc\]	.	.
8r;	.	8r;	.	.
!!LO:PB:g=original
=33	=33	=33	=33	=33
8A: 8C: 8FF':/	.	8cccL 8ff 8cc'\	.	p
!	!	!LO:TUP:a:problem=klamra łukowa	!	!
8r	.	20ccc\L	.	.
.	.	20ddd\	.	.
.	.	20ccc\	.	.
8r	.	.	.	.
.	.	20aa\	.	.
.	.	20ff\JJ	.	.
*clefG2	*	*	*	*
=34	=34	=34	=34	=34
8cc 8f'/	.	8r	.	.
!	!	!LO:TUP:b:problem=klamra łukowa	!	!
8r	.	20cc/LL	.	.
.	.	20dd/	.	.
.	.	20cc/	.	.
8r	.	.	.	.
.	.	20a/	.	.
.	.	20f/JJ	.	.
*clefF4	*	*	*	*
=35	=35	=35	=35	=35
8c 8F'\	.	8r	.	.
8r	.	(16c/LL	.	.
.	.	16d/J	.	.
8r	.	8c/J)	.	.
=36	=36	=36	=36	=36
4.C/	.	8A'/L	.	.
.	.	8c'/	.	.
.	.	8f'/J	.	.
=37	=37	=37	=37	=37
*	*	*^	*	*
4C 4FF/	.	(16e^/LL	4B-\	.	.
.	.	16f/J	.	.	.
.	.	8e/J)	.	.	.
[8c^<\L	.	(16d^/LL	[8B-\L	.	.
.	.	16e/J	.	.	.
=38	=38	=38	=38	=38	=38
8c\J]	.	8d/J)	8B-\J]	.	.
4C/	.	(16e^/LL	4B-\	.	.
.	.	16f/J	.	.	.
.	.	8e/J)	.	.	.
!!LO:LB:g=original
=39	=39	=39	=39	=39	=39
4C 4FF/	.	(16d^/LL	4B-\	.	.
.	.	16e/J	.	.	.
.	.	8d/J)	.	.	.
!	!	!	!LO:N:vis=4	!	!
[8c^<\L	.	(16e^/LL	8B-\	.	.
.	.	16f/J	.	.	.
=40	=40	=40	=40	=40	=40
8c\J]	.	8e/)	4.B-\	.	.
4C/	.	8d'/	.	.	.
.	.	8c'/J	.	.	.
*	*	*v	*v	*	*
=41	=41	=41	=41	=41
8A: 8C: 8FF':/	.	8cccL 8ff 8cc'\	.	.
!	!	!LO:TUP:a:problem=klamra łukowa	!	!
8r	.	20ccc\L	.	.
.	.	20ddd\	.	.
.	.	20ccc\	.	.
8r	.	.	.	.
.	.	20aa\	.	.
.	.	20ff\JJ	.	.
*clefG2	*	*	*	*
=42	=42	=42	=42	=42
8cc 8f'/	.	8r	.	.
!	!	!LO:TUP:b:problem=klamra łukowa	!	!
8r	.	20cc/LL	.	.
.	.	20dd/	.	.
.	.	20cc/	.	.
8r	.	.	.	.
.	.	20a/	.	.
.	.	20f/JJ	.	.
*clefF4	*	*	*	*
=43	=43	=43	=43	=43
8c 8F'\	.	8r	.	.
8r	.	(16c/LL	.	.
.	.	16d/J	.	.
8r	.	8c/J)	.	.
=44	=44	=44	=44	=44
4.C/	.	8A'/L	.	.
.	.	8c'/	.	.
.	.	8f'/J	.	.
!!LO:LB:g=original
=45	=45	=45	=45	=45
*^	*	*^	*	*
4F/	[4.GG\	.	(16e^/LL	4Bn\	.	.
.	.	.	16f/J	.	.	.
.	.	.	8e/J)	.	.	.
[8F/L	.	.	([[<16d^/LL	[8B\L	.	.
.	.	.	16e/J	.	.	.
=46	=46	=46	=46	=46	=46	=46
8F/J]	4.GG\_	.	8d/J]])	8B\J]	.	.
4E/	.	.	(16a^/LL	4c\	.	.
.	.	.	16bn/J	.	.	<
.	.	.	8a/J)	.	.	.
=47	=47	=47	=47	=47	=47	=47
4E/	4.GG\_	.	(16g^/LL	4c\	.	.
.	.	.	16a/J	.	.	.
.	.	.	8g/J)	.	.	[
[8G/L	.	.	(16ee^/LL	[8bn [8g\L	.	.
.	.	.	16ff/J	.	.	.
=48	=48	=48	=48	=48	=48	=48
8G/J]	4.GG\]	.	8ee/J)	8b] 8g\J]	.	.
4A/	.	.	(16dd^/LL	4bn 4f\	.	>
.	.	.	16ee/J	.	.	.
.	.	.	8dd/J)	.	.	.
=49	=49	=49	=49	=49	=49	=49
4G/	[4.C\	.	(16dd/LL	4b-X 4f\	.	.
.	.	.	16ee/J	.	.	.
.	.	.	8dd/J)	.	.	]
[8c/	.	.	(16cc/LL	[8b- [8e\	.	.
.	.	.	16dd/JJ	.	.	.
*v	*v	*	*v	*v	*	*
=50	=50	=50	=50	=50
4c] 4C\]	.	4cc 4b-] 4e/])	.	.
8r	.	8r	.	.
!!LO:LB:g=original
=51	=51	=51	=51	=51
8A: 8C: 8FF:/	.	8cccL 8ff 8cc'\	.	.
!	!	!LO:TUP:a:problem=klamra łukowa	!	!
8r	.	20ccc\L	.	.
.	.	20ddd\	.	.
.	.	20ccc\	.	.
8r	.	.	.	.
.	.	20aa\	.	.
.	.	20ff\JJ	.	.
*clefG2	*	*	*	*
=52	=52	=52	=52	=52
8cc 8f'/	.	8r	.	.
!	!	!LO:TUP:b:problem=klamra łukowa	!	!
8r	.	20cc/LL	.	.
.	.	20dd/	.	.
.	.	20cc/	.	.
8r	.	.	.	.
.	.	20a/	.	.
.	.	20f/JJ	.	.
*clefF4	*	*	*	*
=53	=53	=53	=53	=53
8c 8F'\	.	8r	.	.
8r	.	(16c/LL	.	.
.	.	16d/J	.	.
8r	.	8c/J)	.	.
=54	=54	=54	=54	=54
4.C/	.	8A'/L	.	.
.	.	8c'/	.	.
.	.	8f'/J	.	.
=55	=55	=55	=55	=55
*	*	*^	*	*
4C 4FF/	.	(16e^/LL	4B-X\	.	.
.	.	16f/J	.	.	.
.	.	8e/J)	.	.	.
[8c^<\L	.	(16d/LL	[8B-\L	.	.
.	.	16e/J	.	.	.
=56	=56	=56	=56	=56	=56
8c\J]	.	8d/J)	8B-\J]	.	.
4C/	.	(16e/LL	4B-\	.	.
.	.	16f/J	.	.	.
.	.	8e/J)	.	.	.
!!LO:LB:g=original
=57	=57	=57	=57	=57	=57
4C 4FF/	.	(16d/LL	4B-\	.	.
.	.	16e/J	.	.	.
.	.	8d/J)	.	.	.
[8c^<\L	.	(16e/LL	[8B-\	.	.
.	.	16f/J	.	.	.
=58	=58	=58	=58	=58	=58
8c\J]	.	8e/)	4.B-\]	.	.
4C/	.	8d'/	.	.	.
.	.	8c'/J	.	.	.
*	*	*v	*v	*	*
=59	=59	=59	=59	=59
8A: 8C: 8FF':/	.	8cccL 8ff 8cc'\	.	.
!	!	!LO:TUP:a:problem=klamra łukowa	!	!
8r	.	20ccc\L	.	.
.	.	20ddd\	.	.
.	.	20ccc\	.	.
8r	.	.	.	.
.	.	20aa\	.	.
.	.	20ff\JJ	.	.
*clefG2	*	*	*	*
=60	=60	=60	=60	=60
8cc 8f'/	.	8r	.	.
!	!	!LO:TUP:b:problem=klamra łukowa	!	!
8r	.	20cc/LL	.	.
.	.	20dd/	.	.
.	.	20cc/	.	.
8r	.	.	.	.
.	.	20a/	.	.
.	.	20f/JJ	.	.
*clefF4	*	*	*	*
=61	=61	=61	=61	=61
8c 8F'\	.	8r	.	.
8r	.	(16c/LL	.	.
.	.	16d/J	.	.
8r	.	8c/J)	.	.
=62	=62	=62	=62	=62
4.C/	.	8A'/L	.	.
.	.	8c'/	.	.
.	.	8f'/J	.	.
!!LO:LB:g=original
=63	=63	=63	=63	=63
*^	*	*^	*	*
4F/	4GG\	.	(16e/LL	4Bn\	.	.
.	.	.	16f/J	.	.	.
.	.	.	8e/J)	.	.	.
[8F/L	[8GG\L	.	(16d/LL	[8B\L	.	.
.	.	.	16e/J	.	.	.
=64	=64	=64	=64	=64	=64	=64
8F/J]	8GG\J]	.	8d/J)	8B\J]	.	.
4E/	4C\	.	4c/	4c\	.	.
*v	*v	*	*	*	*	*
*	*	*v	*v	*	*
=65	=65	=65	=65	=65
(4c\	.	8d'/L	.	mp
.	.	(16f#X/L	.	.
.	.	16dd/	.	.
8D\)	.	16d/	.	.
.	.	16f#/JJ)	.	.
=66	=66	=66	=66	=66
(4B-X\	.	8g'/L	.	.
.	.	(16g/L	.	.
.	.	16dd/	.	.
[<8D\)	.	16d/	.	.
.	.	16dd/JJ)	.	.
=67	=67	=67	=67	=67
*^	*	*^	*	*
4e-X/	4.D\_	.	(16cc/LL	4g\	.	.
.	.	.	16dd/J	.	.	.
.	.	.	8cc/J)	.	.	.
[8d/	.	.	(16b-/LL	8g\	.	.
.	.	.	16cc/JJ	.	.	.
*	*	*	*v	*v	*	*
=68	=68	=68	=68	=68	=68
8d/L]	4.D\]	.	8b- 8g'/L)	.	.
8c'/	.	.	8a 8e-X'/	.	.
8B-'/J	.	.	8gJ 8d'/	.	.
*v	*v	*	*	*	*
!!LO:PB:g=original
=69	=69	=69	=69	=69
!	!	!LO:TUP:a	!	!
4c 4C\	.	(56%3ee-X\LL	.	.
.	.	56%3e-X\	.	.
.	.	56%3f#X\	.	.
.	.	56%3ee-\)	.	.
.	.	(56%3ee-\	.	.
8c 8C\	.	.	.	.
.	.	56%3ff#X\	.	.
.	.	56%3eee-X\JJ)	.	.
=70	=70	=70	=70	=70
4B- 4BB-\	.	(16ddd\LL	.	.
.	.	16gg\	.	.
.	.	16dd\)	.	.
.	.	(16dd\	.	.
8B- 8BB-\	.	16g\	.	.
.	.	16d\JJ)	.	.
=71	=71	=71	=71	=71
!	!	!LO:TUP:a	!	!
4A 4AA\	.	(56%3cc\LL	.	.
.	.	56%3d\	.	.
.	.	56%3f#X\	.	.
.	.	56%3cc\)	.	.
.	.	(56%3cc\	.	.
8A 8AA\	.	.	.	.
.	.	56%3ff#X\	.	.
.	.	56%3ccc\JJ)	.	.
=72	=72	=72	=72	=72
4G 4GG/	.	(16bb-\LL	.	.
.	.	16gg\	.	.
.	.	16dd\	.	.
.	.	16b-\	.	.
8G 8GG/	.	16g\	.	.
.	.	16d\JJ)	.	.
=73	=73	=73	=73	=73
*	*	*^	*	*
4c 4C\	.	(16a/LL	4e-X\	.	<
.	.	16b-/J	.	.	.
.	.	8a/J)	.	.	.
[8c [8C\L	.	(16a/LL	[8e-\L	.	.
.	.	16b-/J	.	.	.
!!LO:LB:g=original
=74	=74	=74	=74	=74	=74
8c] 8C\J]	.	8a/J)	8e-\J]	.	.
4c#X 4C#X\	.	(16b-/LL	4g 4e-X\	.	.
.	.	16cc/J	.	.	.
.	.	8b-/J)	.	.	.
=75	=75	=75	=75	=75	=75
4cn 4D\	.	(16dd/LL	4f#X\	.	.
.	.	16ee-X/J	.	.	.
.	.	8dd/)	.	.	.
8c 8D\	.	8dd'/J	8f#\	.	.
*	*	*v	*v	*	*
=76	=76	=76	=76	=76
4B-: 4D: 4GG:\	.	4gg 4dd 4g\	.	f
8r	.	8r	.	.
=77	=77	=77	=77	=77
(4B-\	.	8c'/L	.	mp
.	.	(16en/L	.	.
.	.	16cc/	.	.
8C/)	.	16c/	.	.
.	.	16e/JJ)	.	.
=78	=78	=78	=78	=78
(4A-X\	.	8fn'/L	.	.
.	.	(16f/L	.	.
.	.	16cc/	.	.
[8C/)	.	16c/	.	.
.	.	16cc/JJ)	.	.
=79	=79	=79	=79	=79
*^	*	*^	*	*
4d-X/	4.C\_	.	(16b-/LL	4f\	.	.
.	.	.	16cc/J	.	.	.
.	.	.	8b-/J)	.	.	.
[8c/	.	.	(16a-X/LL	[8f\	.	.
.	.	.	16b-/JJ)	.	.	.
*	*	*	*v	*v	*	*
!!LO:LB:g=original
=80	=80	=80	=80	=80	=80
8c/L]	4.C\]	.	8a-XL 8f/]	.	.
8B-/	.	.	8g 8d-X'/	.	.
8A-X/J	.	.	8fJ 8c'/	.	.
*v	*v	*	*	*	*
=81	=81	=81	=81	=81
!	!	!LO:TUP:a	!	!
4G 4BB-\	.	(56%3dd-X\LL	.	.
.	.	56%3d-X\	.	.
.	.	56%3e\	.	.
.	.	56%3dd-\)	.	.
.	.	(56%3dd-\	.	.
8G 8BB-\	.	.	.	.
.	.	56%3ee\	.	.
.	.	56%3ddd-X\JJ)	.	.
=82	=82	=82	=82	=82
4F 4AA-X/	.	(16ccc\LL	.	.
.	.	16ff\	.	.
.	.	16cc\)	.	.
.	.	(16cc\	.	.
8F 8AA-/	.	16f\	.	.
.	.	16c\JJ)	.	.
=83	=83	=83	=83	=83
!	!	!LO:TUP:a	!	!
4C 4GG/	.	(56%3b-\LL	.	.
.	.	56%3c\	.	.
.	.	56%3e\	.	.
.	.	56%3b-\)	.	.
.	.	(56%3cc\	.	.
8C 8GG/	.	.	.	.
.	.	56%3ee\	.	.
.	.	56%3bb-\JJ)	.	.
=84	=84	=84	=84	=84
4C 4FF/	.	(16aa-X\LL	.	.
.	.	16ff\	.	.
.	.	16cc\)	.	.
.	.	(16a-X\	.	.
8C 8FF/	.	16f\	.	.
.	.	16c\JJ)	.	.
!!LO:LB:g=original
=85	=85	=85	=85	=85
*	*	*^	*	*
4En 4BB-/	.	(16g/LL	4d-X\	.	p
.	.	16a-X/J	.	.	.
.	.	8g/J)	.	.	.
[8E [8BB-/L	.	(16g/LL	[8d-\L	.	<
.	.	16a-/J	.	.	.
=86	=86	=86	=86	=86	=86
8E] 8BB-/J]	.	8g/J)	8d-\J]	.	.
4F 4BBn\	.	(16a-X/LL	4dn\	.	.
.	.	16b-/J	.	.	.
.	.	8a-/J)	.	.	.
=87	=87	=87	=87	=87	=87
4B-X 4E\	.	(16cc/LL	4g\	.	.
.	.	16dd-X/J	.	.	.
.	.	8cc/J)	.	.	.
[8B- [8E\L	.	(16cc/LL	[8g\L	.	.
.	.	16dd-/J	.	.	.
=88	=88	=88	=88	=88	=88
8B-] 8E\J]	.	8cc/J)	8g\J]	.	.
4Bn 4F\	.	(16dd-X/LL	4a-X\	.	.
.	.	16ee-X/J	.	.	.
.	.	8dd-/J)	.	.	.
*clefG2	*	*	*	*	*
=89	=89	=89	=89	=89	=89
4g 4e 4B-X/	.	(16gg/LL	4dd-X\	.	.
.	.	16aa-X/J	.	.	.
.	.	8gg/J)	.	.	.
[8gL [8e [8B-/	.	(16gg/LL	[8dd-\L	.	.
.	.	16aa-/J	.	.	.
=90	=90	=90	=90	=90	=90
8g]J 8e] 8B-/]	.	8gg/J)	8dd-\J]	.	.
4a-X 4f 4Bn/	.	(16aa-X/LL	4ddn\	.	.
.	.	16bb-/J	.	.	.
.	.	8aa-/J)	.	.	.
=91	=91	=91	=91	=91	=91
4cc 4b- 4e/	.	(16ccc/LL	4gg\	.	.
.	.	16ddd-X/J	.	.	.
.	.	8ccc/J)	.	.	.
[8cc [8b- [8e/L	.	(16ccc/LL	[8gg\L	.	.
.	.	16ddd-/J	.	.	.
!!LO:LB:g=original
=92	=92	=92	=92	=92	=92
8cc] 8b-] 8e/J]	.	8ccc/J)	8gg\J]	.	.
4dd-X 4b- 4f/	.	(16ddd-X/LL	4aa-X\	.	.
.	.	16eee/J	.	.	.
.	.	8ddd-/J)	.	.	.
*	*	*v	*v	*	*
=93	=93	=93	=93	=93
8ff 8dd-X 8b- 8g'\	.	8gggL 8fff 8ddd-X 8gg'\	.	ff
!	!	!LO:TUP:a:problem=klamra łukowa	!	!
8r	.	20fff\L	.	.
.	.	20ggg\	.	.
.	.	20fff\	.	.
8r	.	.	.	.
.	.	20ddd-\	.	.
.	.	20gg\JJ	.	.
=94	=94	=94	=94	=94
8ff 8dd-X 8b- 8g'\	.	8r	.	.
!	!	!LO:TUP:a:problem=klamra łukowa	!	!
8r	.	20ff\LL	.	.
.	.	20gg\	.	.
.	.	20ff\	.	.
8r	.	.	.	.
.	.	20dd-X\	.	.
.	.	20g\JJ	.	.
*clefF4	*	*	*	*
=95	=95	=95	=95	=95
8f 8d-X 8B- 8G'\	.	8r	.	.
!	!	!LO:TUP:b:problem=klamra łukowa	!	!
8r	.	20f/LL	.	.
.	.	20g/	.	.
.	.	20f/	.	.
8r	.	.	.	.
.	.	20d-X/	.	.
.	.	20G/JJ	.	.
=96	=96	=96	=96	=96
8BB- 8BBB-'/	.	8r	.	.
8r	.	8g 8f 8c#X 8G'/	.	.
8BB- 8BBB-'/	.	8r	.	.
=97	=97	=97	=97	=97
8BBn 8BBBn'/	.	8g 8f 8dn 8G'/	.	mf
!	!	!LO:TUP:a:problem=klamra łukowa	!	!
8r	.	20fff\LL	.	.
.	.	20ggg\	.	.
.	.	20fff\	.	.
8r	.	.	.	.
.	.	20dddn\	.	.
.	.	20gg\JJ	.	.
*clefG2	*	*	*	*
!!LO:LB:g=original
=98	=98	=98	=98	=98
8ff 8bn 8g'\	.	8r	.	.
!	!	!LO:TUP:a:problem=klamra łukowa	!	!
8r	.	20ff\LL	.	.
.	.	20gg\	.	.
.	.	20ff\	.	.
8r	.	.	.	.
.	.	20dd\	.	.
.	.	20g\JJ	.	.
*clefF4	*	*	*	*
=99	=99	=99	=99	=99
8f 8Bn 8G'\	.	8r	.	.
!	!	!LO:TUP:b:problem=klamra łukowa	!	!LO:HP:t=dimin.
8r	.	20f/LL	.	>
.	.	20g/	.	.
.	.	20f/	.	.
8r	.	.	.	.
.	.	20d/	.	.
.	.	20G/JJ	.	.
=100	=100	=100	=100	=100
4D 4DD/	.	8r	.	.
.	.	8gL 8f 8Bn 8G'/	.	.
8D-X 8DD-X'/	.	8g#XJ 8f 8B 8G#X'/	.	.
=101	=101	=101	=101	=101
8C 8CC'/	.	8a 8fn 8c 8A'/	.	p
!	!	!LO:TUP:a:problem=klamra łukowa	!	!
8r	.	20ccc\LL	.	.
.	.	20ddd\	.	.
.	.	20ccc\	.	.
8r	.	.	.	.
.	.	20aa\	.	.
.	.	20ff\JJ	.	.
*clefG2	*	*	*	*
=102	=102	=102	=102	=102
8cc 8f'/	.	8r	.	.
!	!	!LO:TUP:b:problem=klamra łukowa	!	!
8r	.	20cc/LL	.	.
.	.	20dd/	.	.
.	.	20cc/	.	.
8r	.	.	.	.
.	.	20a/	.	.
.	.	20f/JJ	.	.
*clefF4	*	*	*	*
=103	=103	=103	=103	=103
8c 8F'\	.	8r	.	.
8r	.	(16c/LL	.	.
.	.	16d/J	.	.
8r	.	8c/J)	.	.
!!LO:PB:g=original
=104	=104	=104	=104	=104
[4.C/	.	8A'/L	.	.
.	.	8c'/	.	.
.	.	8f'/J	.	.
=105	=105	=105	=105	=105
*^	*	*^	*	*
4B-/	4.C_\	.	(16g/LL	4d\	.	.
.	.	.	16a/J	.	.	.
.	.	.	8g/J)	.	.	.
[8B-/L	.	.	(16g/LL	[8d\L	.	.
.	.	.	16a/J	.	.	.
=106	=106	=106	=106	=106	=106	=106
8B-/J]	4.C\_	.	8g/J)	8d\J]	.	.
4F#X/	.	.	(16a/LL	4e-X\	.	.
.	.	.	16b-/J	.	.	.
.	.	.	8a/J)	.	.	.
=107	=107	=107	=107	=107	=107	=107
4G/	4.C\_	.	(16cc/LL	4d\	.	.
.	.	.	16dd/J	.	.	.
.	.	.	8cc/J)	.	.	.
[8G/L	.	.	(16b-/LL	[8d\L	.	.
.	.	.	16cc/J	.	.	.
=108	=108	=108	=108	=108	=108	=108
8G/J]	4.C\]	.	8b-/J)	8d\J]	.	.
4B-/	.	.	(16dd/LL	4f\	.	.
.	.	.	16ee/J	.	.	.
.	.	.	8dd/J)	.	.	.
*v	*v	*	*	*	*	*
=109	=109	=109	=109	=109	=109
4B- 4C\	.	(16a/LL	4en\	.	.
.	.	16b-/J	.	.	.
.	.	8a/)	.	.	.
8B- 8C\	.	8g/J	8e\	.	.
*	*	*v	*v	*	*
!!LO:LB:g=original
=110	=110	=110	=110	=110
4A 4F\	.	4f 4c/	.	.
8r	.	8r	.	.
*clefG2	*	*	*	*
=111	=111	=111	=111	=111
*	*	*^	*	*
4b- 4c/	.	(16aa/LL	4ee\	.	pp
.	.	16bb-/J	.	.	.
.	.	8aa/)	.	.	.
8b- 8c'/	.	8gg'/J	8ee\	.	.
*	*	*v	*v	*	*
=112	=112	=112	=112	=112
8a 8f'/	.	8ff 8cc'\	.	.
8r	.	8r	.	.
*	*	*8va	*	*
8r	.	(16ffff\LL	.	.
.	.	16fff\JJ)	.	.
*clefF4	*	*X8va	*	*
=113	=113	=113	=113	=113
[4.a [4.c [4.F\	.	[4.ff^\	.	.
=114	=114	=114	=114	=114
8a] 8c] 8F\]	.	8ff\]	.	.
8r	.	8r	.	.
!	!	!LO:TX:a:i:t=espressivo	!	!
8r	.	8r	.	.
=115||	=115||	=115||	=115||	=115||
!!!OMD: Meno mosso.
*k[]	*	*k[]	*	*
*	*	*^	*	*
!	!	!	!	!	!LO:DY:t=mp tranquillo
4.c 4.E [4.AA\	.	N(8ee/L	[4.a [4.e\	.	mp
.	.	8ff/	.	.	.
.	.	8ee/J	.	.	.
=116	=116	=116	=116	=116	=116
*^	*	*	*	*	*
(4.E^/	4.AA\_	.	8dd/L	4.a] 4.e\]	.	.
.	.	.	8cc/	.	.	.
.	.	.	8ee/J	.	.	.
!!LO:LB:g=original
=117	=117	=117	=117	=117	=117	=117
4.F#X^/	4.AA\_	.	8ee-X/L	4.e-X\	.	.
.	.	.	16cc/L	.	.	.
.	.	.	16b/J	.	.	.
.	.	.	8a/J	.	.	.
=118	=118	=118	=118	=118	=118	=118
4.G#X^/	4.AA\_	.	8cc/L	4.en\	.	.
.	.	.	8b/	.	.	.
.	.	.	8dd/J	.	.	.
=119	=119	=119	=119	=119	=119	=119
.	.	.	(<16qqcc/LL	.	.	.
.	.	.	16qqdd/JJ	.	.	.
4.A^/	4.AA\_	.	8cc/L)	4.e\	.	.
.	.	.	8b/	.	.	.
.	.	.	[8a/J	.	.	.
=120	=120	=120	=120	=120	=120	=120
4.Fn^/	4.AA\_	.	8a/L]	4.d 4.B\	.	.
.	.	.	8b/	.	.	.
.	.	.	8g#X/J	.	.	.
=121	=121	=121	=121	=121	=121	=121
4.E/)	4.AA\]	.	8a/L	4.c\	.	.
.	.	.	8e/	.	.	.
.	.	.	8c/J	.	.	.
*v	*v	*	*	*	*	*
*	*	*v	*v	*	*
=122	=122	=122	=122	=122
8A\L	.	4.r	.	.
8E\	.	.	.	.
8AA\JN)	.	.	.	.
!!LO:LB:g=original
=123	=123	=123	=123	=123
.	.	(16qqb/LL	.	.
.	.	16qqcc/JJ	.	.
4B 4D 4AA^\	.	4b 4f^>/)	.	pp
.	.	(16qqdd/LL	.	.
.	.	16qqee/JJ	.	.
*clefG2	*	*	*	*
[8a [8f [8B^/L	.	[8dd [8b^\L)	.	.
=124	=124	=124	=124	=124
8a] 8f] 8B/J]	.	8dd] 8b\J]	.	.
.	.	(16qqff/LL	.	.
.	.	16qqgg/JJ	.	.
4b 4a 4d^>/	.	4ff 4dd^\)	.	.
=125	=125	=125	=125	=125
.	.	(16qqddd/LL	.	.
.	.	16qqeee/JJ	.	.
4dd 4b 4f^>/	.	4ddd 4aa^\)	.	.
8aa 8ff 8dd 8b'\	.	8aaa 8fff 8ddd 8bb'\	.	.
=126	=126	=126	=126	=126
4aa 4ff 4dd 4b'\	.	4aaa 4fff 4ddd 4bb'^<\	.	.
8r	.	8r	.	.
*clefF4	*	*	*	*
=127	=127	=127	=127	=127
*	*	*^	*	*
!	!	!	!	!	!LO:DY:t=mp espressivo
(4.d [4.E\	.	(8cc#X/L	4.b 4.f\	.	mp
.	.	8dd/	.	.	.
.	.	8ff/J	.	.	.
=128	=128	=128	=128	=128	=128
4.c 4.E\])	.	8ee/L	4.a 4.e\	.	.
.	.	8dd/	.	.	.
.	.	8cc/J)	.	.	.
!!LO:LB:g=original
=129	=129	=129	=129	=129	=129
4.E 4.GG#X/	.	(8d#X/L	4.dn\	.	.
.	.	8e/	.	.	.
.	.	8dd/J	.	.	.
=130	=130	=130	=130	=130	=130
4.E 4.AA/	.	8cc/L	4.c\	.	.
.	.	16cc/L	.	.	.
.	.	16b/J	.	.	.
.	.	8a/J)	.	.	.
=131	=131	=131	=131	=131	=131
[4.D\	.	(8g#X/L	[4.f#X [4.c\	.	<
.	.	8a/	.	.	.
.	.	8b/J	.	.	[[
=132	=132	=132	=132	=132	=132
4.D] 4.DD/	.	8dd/L	4.f#] 4.c\]	.	>
.	.	8cc/	.	.	.
.	.	8a/J)	.	.	]]
*	*	*v	*v	*	*
=133	=133	=133	=133	=133
.	.	(16qqa/LL	.	.
.	.	16qqb/JJ	.	.
4GGn 4GGGn/	.	4a 4fn 4B/)	.	pp
.	.	(16qqdd/LL	.	.
.	.	16qqee/JJ	.	.
*clefG2	*	*	*	*
[8aL [8f [8B/	.	[8dd [8b\L)	.	.
=134	=134	=134	=134	=134
8a]J 8f] 8B/]	.	8dd] 8b\J]	.	.
.	.	(16qqff/LL	.	.
.	.	16qqgg/JJ	.	.
4b 4a 4d/	.	4ff 4dd\)	.	.
=135	=135	=135	=135	=135
.	.	(16qqddd/LL	.	.
.	.	16qqeee/JJ	.	.
4dd 4b 4f/	.	4ddd 4aa\)	.	.
8aa 8ff 8dd 8b'\	.	8aaa 8fff 8ddd 8bb'\	.	.
!!LO:LB:g=original
=136	=136	=136	=136	=136
4.aa 4.ff 4.dd 4.b\	.	4.aaa 4.fff 4.ddd 4.bb\	.	.
*clefF4	*	*	*	*
=137	=137	=137	=137	=137
*	*	*^	*	*
[4.E: [4.GG: [4.CC:/	.	(8gg/L	[4.cc [4.g\	.	mp
.	.	8ee/	.	.	.
.	.	8ff/J	.	.	.
=138	=138	=138	=138	=138	=138
4.E] 4.GG] 4.CC/]	.	8ee/L	4.cc] 4.g\]	.	.
.	.	8dd/	.	.	.
.	.	8cc/J	.	.	.
=139	=139	=139	=139	=139	=139
4.d 4.c 4.F\	.	8dd/L	4.a-X\	.	.
.	.	16dd/L	.	.	.
.	.	16ee/J	.	.	.
.	.	8dd/J	.	.	.
*	*	*v	*v	*	*
=140	=140	=140	=140	=140
4.e 4.G 4.C\	.	8cc/L	.	.
.	.	8g/	.	.
.	.	8c/J	.	.
=141	=141	=141	=141	=141
*	*	*^	*	*
4.C 4.FF/	.	8d/L	4.A-X\	.	.
.	.	16d/L	.	.	.
.	.	16e/J	.	.	.
.	.	8d/J)	.	.	.
*	*	*v	*v	*	*
=142	=142	=142	=142	=142
[4.E [4.GG [4.CC/	.	(8c/L	.	<
.	.	8G/	.	.
.	.	8g/J	.	.
!!LO:PB:g=original
=143	=143	=143	=143	=143
4.E_ 4.GG_ 4.CC/_	.	8e/L	.	.
.	.	8c/	.	.
.	.	8cc/J	.	.
=144	=144	=144	=144	=144
4.E_ 4.GG_ 4.CC/_	.	8g/L	.	.
.	.	8e/	.	.
.	.	[>8ee/J	.	[
=145	=145	=145	=145	=145
4.E] 4.GG] 4.CC/]	.	8ee\L]	.	>
.	.	8dd\	.	.
.	.	8cc\J)	.	]]
=146	=146	=146	=146	=146
*	*	*^	*	*
4.D 4.DD/	.	(8b/L	4.f 4.B\	.	p
.	.	8a/	.	.	.
.	.	8b/J	.	.	.
=147	=147	=147	=147	=147	=147
4.E 4.EE/	.	8g#X/L	4.e 4.B\	.	.
.	.	8a/	.	.	.
.	.	8b/J)	.	.	.
*	*	*v	*v	*	*
=148	=148	=148	=148	=148
(8C/L	.	[4.a [4.e [4.A/	.	.
16C/L	.	.	.	.
16BB/J	.	.	.	.
8C/J	.	.	.	.
!!LO:LB:g=original
=149	=149	=149	=149	=149
8AA/L	.	4a] 4e] 4A/]	.	.
8BB/	.	.	.	.
8C/J)	.	8r	.	.
=150	=150	=150	=150	=150
*	*	*^	*	*
[<4.D\	.	(8b/L	4.f 4.B\	.	.
.	.	8a/	.	.	.
.	.	8b/J	.	.	.
=151	=151	=151	=151	=151	=151
*^	*	*	*	*	*
[4.E/	4.D\]	.	8g#X/L	4.e\	.	.
.	.	.	8b/	.	.	.
.	.	.	8ff/J)	.	.	.
*	*	*	*v	*v	*	*
=152	=152	=152	=152	=152	=152
4.E/_	(8C\L	.	[4.ee [4.a [4.e/	.	.
.	16C\L	.	.	.	.
.	16BB\J	.	.	.	.
.	8C\J	.	.	.	.
=153	=153	=153	=153	=153	=153
4.E/]	8AA\L	.	4ee] 4a] 4e/]	.	.
.	8BB\	.	.	.	.
.	8C\J)	.	8r	.	.
*v	*v	*	*	*	*
=154	=154	=154	=154	=154
.	.	(16qqb/LL	.	.
.	.	16qqcc/JJ	.	.
4B 4A 4D\	.	4b 4f/)	.	pp
.	.	(16qqdd/LL	.	.
.	.	16qqee/JJ	.	.
*clefG2	*	*	*	*
[8a [8f [8B/L	.	[8dd [8b\L)	.	.
!!LO:LB:g=original
=155	=155	=155	=155	=155
8a] 8f] 8B/J]	.	8dd] 8b\J]	.	.
.	.	(16qqff/LL	.	.
.	.	16qqgg/JJ	.	.
4b 4a 4d/	.	4ff 4dd\)	.	.
=156	=156	=156	=156	=156
.	.	(16qqddd/LL	.	.
.	.	16qqeee/JJ	.	.
4dd 4b 4f/	.	4ddd 4aa\)	.	.
8aa 8ff 8dd 8b'\	.	8aaa 8fff 8ddd 8bb'\	.	.
=157	=157	=157	=157	=157
4aa 4ff 4dd 4b'\	.	4aaa 4fff 4ddd 4bb'\	.	.
8r	.	8r	.	.
*clefF4	*	*	*	*
=158	=158	=158	=158	=158
4E 4EE/	.	4e 4d 4G#X/	.	mf
8e\	.	8ee\	.	.
=159	=159	=159	=159	=159
!	!	!LO:TX:b:i:t=rit.	!	!
[4.e\	.	([4.ee\	.	.
=160	=160	=160	=160	=160
(8e\L]	.	8ee\L]	.	>
8g\	.	8gg\	.	.
8f\J)	.	8ff\J)	.	.
=161	=161	=161	=161	=161
4.e\	.	[4.ee\	.	]]
!!LO:LB:g=original
=162	=162	=162	=162	=162
*	*	*^	*	*
!	!	!LO:TX:a:i:t=a tempo	!	!	!
4.c 4.E [4.AA\	.	N(8ee/L]	[4.a [4.e\	.	mp
.	.	8ff/	.	.	.
.	.	8ee/J	.	.	.
=163	=163	=163	=163	=163	=163
*^	*	*	*	*	*
(4.E^/	4.AA\_	.	8dd/L	4.a] 4.e\]	.	.
.	.	.	8cc/	.	.	.
.	.	.	8ee/J	.	.	.
=164	=164	=164	=164	=164	=164	=164
4.F#X^/	4.AA\_	.	8ee-X/L	4.e-X\	.	.
.	.	.	16cc/L	.	.	.
.	.	.	16b/J	.	.	.
.	.	.	8a/J	.	.	.
=165	=165	=165	=165	=165	=165	=165
4.G#X^/	4.AA\_	.	8cc/L	4.en\	.	.
.	.	.	8b/	.	.	.
.	.	.	8dd/J	.	.	.
=166	=166	=166	=166	=166	=166	=166
.	.	.	(<16qqcc/LL	.	.	.
.	.	.	16qqdd/JJ	.	.	.
4.A^/	4.AA\_	.	8cc/L)	4.e\	.	.
.	.	.	8b/	.	.	.
.	.	.	[8a/J	.	.	.
=167	=167	=167	=167	=167	=167	=167
4.Fn^/	4.AA\_	.	8a/L]	4.d 4.B\	.	.
.	.	.	8b/	.	.	.
.	.	.	8g#X/J	.	.	.
!!LO:LB:g=original
=168	=168	=168	=168	=168	=168	=168
4.E/)	4.AA\]	.	8a/L	4.c\	.	.
.	.	.	8e/	.	.	.
.	.	.	8A/J	.	.	.
*v	*v	*	*	*	*	*
*	*	*v	*v	*	*
=169	=169	=169	=169	=169
8A\L	.	4.r	.	.
8E\	.	.	.	.
8AA\JN)	.	.	.	.
=170	=170	=170	=170	=170
.	.	(16qqb/LL	.	.
.	.	16qqcc/JJ	.	.
4B 4D 4AA\	.	4b 4f^>/)	.	pp
.	.	(16qqdd/LL	.	.
.	.	16qqee/JJ	.	.
*clefG2	*	*	*	*
[8aL [8f [8B/L	.	[8dd [8b^\L)	.	.
=171	=171	=171	=171	=171
8a]J 8f] 8B/J]	.	8dd] 8b\J]	.	.
.	.	(16qqff/LL	.	.
.	.	16qqgg/JJ	.	.
4b 4a 4d/	.	4ff 4dd^\)	.	.
=172	=172	=172	=172	=172
.	.	(16qqddd/LL	.	.
.	.	16qqeee/JJ	.	.
4dd 4b 4f/	.	4ddd 4aa^\)	.	.
8ccc 8aa 8ff 8dd'\	.	8aaa 8fff 8ddd 8bb'\	.	.
=173	=173	=173	=173	=173
4aa 4ff 4dd 4b^\	.	4aaa 4fff 4ddd 4bb^\	.	.
8r	.	8r	.	.
*clefF4	*	*	*	*
!!LO:LB:g=original
=174	=174	=174	=174	=174
*	*	*^	*	*
4.d [4.E\	.	(8cc#X/L	4.b 4.f\	.	mp
.	.	8dd/	.	.	.
.	.	8ff/J	.	.	.
=175	=175	=175	=175	=175	=175
4.c 4.E\]	.	8ee/L	4.a 4.e\	.	.
.	.	8dd/	.	.	.
.	.	8ccn/J)	.	.	.
=176	=176	=176	=176	=176	=176
4.E 4.GG#X/	.	(8d#X/L	4.dn\	.	.
.	.	8e/	.	.	.
.	.	8dd/J	.	.	.
=177	=177	=177	=177	=177	=177
4.E 4.AA/	.	8cc/L	4.c\	.	.
!	!	!	!	!	!LO:HP:t=dim. e rit.
.	.	16cc/L	.	.	>
.	.	16b/J	.	.	.
.	.	8a/J)	.	.	.
=178	=178	=178	=178	=178	=178
4.C 4.EE/	.	(8Bn/L	4.B-X\	.	.
.	.	8c/	.	.	.
.	.	8b-X/J	.	.	.
=179	=179	=179	=179	=179	=179
4.C 4.FF/	.	8a/L	4.A\	.	.
.	.	8g/	.	.	.
.	.	8f/J)	.	.	.
!!LO:PB:g=original
=180	=180	=180	=180	=180	=180
4.C 4.GG/	.	(8Bn/L	4.B-X\	.	.
.	.	8c/	.	.	.
.	.	8b-X/J	.	.	.
=181	=181	=181	=181	=181	=181
4.C 4.AA-X/	.	8a-X/L	4.c\	.	.
.	.	16a-/L	.	.	.
.	.	16g/J	.	.	.
.	.	8f/J)	.	.	.
*	*	*v	*v	*	*
=182	=182	=182	=182	=182
.	.	(>16qqg-X/LL	.	.
.	.	16qqa-X/JJ	.	.
4G-X 4BB-X^\	.	4g-y 4d-X^>/)	.	pp
.	.	(>16qqdd-X/LL	.	.
.	.	16qqee-X/JJ	.	.
[8B-XL [8D-X^\	.	[8dd-yL [8g-\)	.	.
=183	=183	=183	=183	=183
8B-]J 8D-\]	.	8dd-]J 8g-\]	.	.
.	.	(>16qqgg-X/LL	.	.
.	.	16qqaa-X/JJ	.	.
*clefG2	*	*	*	*
4g-X 4B-X^/	.	4gg-y 4dd-X^\)	.	.
=184	=184	=184	=184	=184
.	.	(>16qqddd-X/LL	.	.
.	.	16qqeee-X/JJ	.	.
4b-X 4d-X^/	.	4ddd-y 4gg-X^\)	.	.
8dd-X 8g-X\	.	8ggg-X 8bb-X 8gg-\	.	.
=185	=185	=185	=185	=185
4dd-X 4g-X^\	.	4ggg-X 4bb-X 4gg-X\	.	.
8r	.	8r	.	.
*clefF4	*	*	*	*
=186	=186	=186	=186	=186
.	.	(>16qqc/LL	.	.
.	.	16qqdn/JJ	.	.
4C 4GGn 4CC^/	.	4c 4B-X 4E^>/)	.	f
.	.	(>16qqgn/LL	.	.
.	.	16qqan/JJ	.	.
[8B-X [8En^\L	.	[8g [8c^>/L)	.	.
!!LO:LB:g=original
=187	=187	=187	=187	=187
8B-] 8E\J]	.	8g] 8c/J]	.	.
.	.	(>16qqcc/LL	.	.
.	.	16qqdd/JJ	.	.
*clefG2	*	*	*	*
4e 4B-X^/	.	4cc 4g^>/)	.	.
=188	=188	=188	=188	=188
.	.	(16qqgg/LL	.	.
.	.	16qqaa/JJ	.	.
4b-X 4e 4c^/	.	4gg 4cc^\)	.	.
8b- 8e 8c^/	.	8ccc 8gg 8cc\	.	.
=189	=189	=189	=189	=189
*	*	*8va	*	*
4bb-X 4ee 4cc\	.	4cccc 4ggg 4ccc^<\	.	.
*	*	*X8va	*	*
(<8a;/	.	8r	.	.
*clefF4	*	*	*	*
=190||	=190||	=190||	=190||	=190||
*k[b-]	*	*k[b-]	*	*
8A 8C 8FF'\)	.	8cccL 8ff 8cc'\	.	p
!	!	!LO:TUP:a:problem=klamra łukowa	!	!
8r	.	20ccc\L	.	.
.	.	20ddd\	.	.
.	.	20ccc\	.	.
8r	.	.	.	.
.	.	20aa\	.	.
.	.	20ff\JJ	.	.
*clefG2	*	*	*	*
=191	=191	=191	=191	=191
8cc 8f'/	.	8r	.	.
*	*	*Xtuplet	*	*
!	!	!LO:TUP:b:problem=klamra łukowa	!	!
8r	.	20cc/LL	.	.
.	.	20dd/	.	.
.	.	20cc/	.	.
8r	.	.	.	.
.	.	20a/	.	.
.	.	20f/JJ	.	.
*clefF4	*	*	*	*
=192	=192	=192	=192	=192
8c 8F'\	.	8r	.	.
8r	.	(16c/LL	.	.
.	.	16d/J	.	.
8r	.	8c/J)	.	.
!!LO:LB:g=original
=193	=193	=193	=193	=193
4.C/	.	8A'/L	.	.
.	.	8c'/	.	.
.	.	8f'/J	.	.
=194	=194	=194	=194	=194
*	*	*^	*	*
4C 4FF/	.	(16e^/LL	4B-\	.	.
.	.	16f/J	.	.	.
.	.	8e/J)	.	.	.
[<8c\L	.	(16d^/LL	[8B-\L	.	.
.	.	16e/J	.	.	.
=195	=195	=195	=195	=195	=195
8c\J]	.	8d/J)	8B-\J]	.	.
4C/	.	(16e^/LL	4B-\	.	.
.	.	16f/J	.	.	.
.	.	8e/J)	.	.	.
=196	=196	=196	=196	=196	=196
4C 4FF/	.	(16d^/LL	4B-\	.	.
.	.	16e/J	.	.	.
.	.	8d/J)	.	.	.
!	!	!	!LO:N:vis=4	!	!
[<8c^<\L	.	(16e^/LL	[8B-\	.	.
.	.	16f/J	.	.	.
=197	=197	=197	=197	=197	=197
8c\J]	.	8e/)	4.B-\]	.	.
4C/	.	8d'/	.	.	.
.	.	8c'/J	.	.	.
*	*	*v	*v	*	*
=198	=198	=198	=198	=198
8A: 8C: 8FF':\	.	8cccL 8ff 8cc'\	.	.
*	*	*tuplet	*	*
!	!	!LO:TUP:a:problem=klamra łukowa	!	!
8r	.	20ccc\L	.	.
.	.	20ddd\	.	.
.	.	20ccc\	.	.
8r	.	.	.	.
.	.	20aa\	.	.
.	.	20ff\JJ	.	.
*clefG2	*	*	*	*
!!LO:LB:g=original
=199	=199	=199	=199	=199
8cc 8f'/	.	8r	.	.
*	*	*Xtuplet	*	*
!	!	!LO:TUP:b:problem=klamra łukowa	!	!
8r	.	20cc/LL	.	.
.	.	20dd/	.	.
.	.	20cc/	.	.
8r	.	.	.	.
.	.	20a/	.	.
.	.	20f/JJ	.	.
*clefF4	*	*	*	*
=200	=200	=200	=200	=200
8c 8F'\	.	8r	.	.
8r	.	(16c/LL	.	.
.	.	16d/J	.	.
8r	.	8c/J)	.	.
=201	=201	=201	=201	=201
4.C/	.	8A'/L	.	.
.	.	8c'/	.	.
.	.	8f'/J	.	.
=202	=202	=202	=202	=202
*^	*	*^	*	*
4F/	[4.GG\	.	(16e^/LL	4Bn\	.	.
.	.	.	16f/J	.	.	.
.	.	.	8e/J)	.	.	.
[<8F/L	.	.	(16d^/LL	[8B\L	.	.
.	.	.	16e/J	.	.	.
=203	=203	=203	=203	=203	=203	=203
8F/J]	4.GG\_	.	8d/J)	8B\J]	.	.
4E/	.	.	(16a^/LL	4c\	.	<
.	.	.	16bn/J	.	.	.
.	.	.	8a/J)	.	.	.
=204	=204	=204	=204	=204	=204	=204
4E/	4.GG\_	.	(16g^/LL	4c\	.	.
.	.	.	16a/J	.	.	.
.	.	.	8g/J)	.	.	.
[8G/L	.	.	(16ee^/LL	[8bn [8gL\	.	[
.	.	.	16ff/J	.	.	.
!!LO:LB:g=original
=205	=205	=205	=205	=205	=205	=205
8G/J]	4.GG\]	.	8ee/J)	8b] 8g\J]	.	.
4A/	.	.	(16dd/LL	4bn 4f\	.	>
.	.	.	16ee/J	.	.	.
.	.	.	8dd/J)	.	.	.
=206	=206	=206	=206	=206	=206	=206
4G/	[4.C\	.	(16ee^/LL	4b-X 4f\	.	.
.	.	.	16ee/J	.	.	]
.	.	.	8dd/J)	.	.	.
[8c/	.	.	(16cc/LL	8b- 8e\	.	.
.	.	.	16dd/JJ	.	.	.
*v	*v	*	*	*	*	*
*	*	*v	*v	*	*
=207	=207	=207	=207	=207
4c] 4C\]	.	4cc 4b- 4e/)	.	.
8r	.	8r	.	.
=208	=208	=208	=208	=208
8A 8C 8FF'\	.	8cccL 8ff 8cc'\	.	p
*	*	*tuplet	*	*
!	!	!LO:TUP:a:problem=klamra łukowa	!	!
8r	.	20ccc\L	.	.
.	.	20ddd\	.	.
.	.	20ccc\	.	.
8r	.	.	.	.
.	.	20aa\	.	.
.	.	20ff\JJ	.	.
*clefG2	*	*	*	*
=209	=209	=209	=209	=209
8cc 8f'/	.	8r	.	.
!	!	!LO:TUP:b:problem=klamra łukowa	!	!
8r	.	20cc/LL	.	.
.	.	20dd/	.	.
.	.	20cc/	.	.
8r	.	.	.	.
.	.	20a/	.	.
.	.	20f/JJ	.	.
*clefF4	*	*	*	*
=210	=210	=210	=210	=210
8c 8F'\	.	8r	.	.
8r	.	(16c/LL	.	.
.	.	16d/J	.	.
8r	.	8c/J)	.	.
!!LO:PB:g=original
=211	=211	=211	=211	=211
4.C/	.	8A'/L	.	.
.	.	8c'/	.	.
.	.	8f'/J	.	.
=212	=212	=212	=212	=212
*	*	*^	*	*
4C 4FF/	.	(16e^/LL	4B-\	.	.
.	.	16f/J	.	.	.
.	.	8e/J)	.	.	.
[8c\L	.	(16d^/LL	[8B-\L	.	.
.	.	16e/J	.	.	.
=213	=213	=213	=213	=213	=213
8c\J]	.	8d/J)	8B-\J]	.	.
4C/	.	(16e^/LL	4B-\	.	.
.	.	16f/J	.	.	.
.	.	8e/J)	.	.	.
=214	=214	=214	=214	=214	=214
4C 4FF/	.	(16d^/LL	4B-\	.	.
.	.	16e/J	.	.	.
.	.	8d/J)	.	.	.
[8c\L	.	(16e^/LL	[8B-\	.	.
.	.	16f/J	.	.	.
=215	=215	=215	=215	=215	=215
8c\J]	.	8e/)	4.B-\]	.	.
4C/	.	8d'/	.	.	.
.	.	8c'/J	.	.	.
*	*	*v	*v	*	*
!!LO:LB:g=original
=216	=216	=216	=216	=216
8A: 8C: 8FF':\	.	8cccL 8ff 8cc'\	.	.
!	!	!LO:TUP:a:problem=klamra łukowa	!	!
8r	.	20ccc\L	.	.
.	.	20ddd\	.	.
.	.	20ccc\	.	.
8r	.	.	.	.
.	.	20aa\	.	.
.	.	20ff\JJ	.	.
*clefG2	*	*	*	*
=217	=217	=217	=217	=217
8cc 8f'/	.	8r	.	.
!	!	!LO:TUP:b:problem=klamra łukowa	!	!
8r	.	20cc/LL	.	.
.	.	20dd/	.	.
.	.	20cc/	.	.
8r	.	.	.	.
.	.	20a/	.	.
.	.	20f/JJ	.	.
*clefF4	*	*	*	*
=218	=218	=218	=218	=218
8c 8F'\	.	8r	.	.
8r	.	(16c/LL	.	.
.	.	16d/J	.	.
8r	.	8c/J)	.	.
=219	=219	=219	=219	=219
4.C/	.	8A'/L	.	.
.	.	8c'/	.	.
.	.	8f'/J	.	.
=220	=220	=220	=220	=220
*^	*	*^	*	*
4F/	4GG\	.	(16e/LL	4Bn\	.	.
.	.	.	16f/J	.	.	.
.	.	.	8e/J)	.	.	.
[8F/L	[8GG\L	.	(16d/LL	[8B\L	.	.
.	.	.	16e/J	.	.	.
!!LO:LB:g=original
=221	=221	=221	=221	=221	=221	=221
8F/J]	8GG\J]	.	8d/J)	8B\J]	.	.
4E 4C\	4ryy	.	4c/	4c\	.	.
*v	*v	*	*	*	*	*
*	*	*v	*v	*	*
=222	=222	=222	=222	=222
(4c\	.	8d'/L	.	mp
.	.	(>16f#X/L	.	.
.	.	16dd/	.	.
8D\)	.	16d/	.	.
.	.	16f#/JJ)	.	.
=223	=223	=223	=223	=223
(4B-X\	.	8g'/L	.	.
.	.	(>16g/L	.	.
.	.	16dd/	.	.
[<8D\)	.	16d/	.	.
.	.	16dd/JJ)	.	.
=224	=224	=224	=224	=224
*^	*	*^	*	*
4e-X/	4.D\_	.	(16cc/LL	4g\	.	.
.	.	.	16dd/J	.	.	.
.	.	.	8cc/J)	.	.	.
[<8d/L	.	.	16b-/LL	[8g\	.	.
.	.	.	16cc/J	.	.	.
*	*	*	*v	*v	*	*
=225	=225	=225	=225	=225	=225
8d/]	4.D\]	.	8b- 8g/]	.	.
8c'</	.	.	8a 8e-X'>/	.	.
8B-'</J	.	.	8fJ 8d'>/	.	.
*v	*v	*	*	*	*
!!LO:LB:g=original
=226	=226	=226	=226	=226
!	!	!LO:TUP:a	!	!
4c 4C\	.	(56%3ee-X\LL	.	.
.	.	56%3e-X\	.	.
.	.	56%3f#X\	.	.
.	.	56%3ee-\)	.	.
.	.	(56%3ee-\	.	.
8c 8C\	.	.	.	.
.	.	56%3ff#X\	.	.
.	.	56%3eee-X\JJ)	.	.
=227	=227	=227	=227	=227
4B- 4BB-\	.	(16ddd\LL	.	.
.	.	16gg\	.	.
.	.	16dd\)	.	.
.	.	(16dd\	.	.
8B- 8BB-\	.	16g\	.	.
.	.	16d\JJ)	.	.
=228	=228	=228	=228	=228
!	!	!LO:TUP:a	!	!
4A 4AA\	.	(56%3cc\LL	.	.
.	.	56%3d\	.	.
.	.	56%3f#X\	.	.
.	.	56%3cc\)	.	.
.	.	(56%3cc\	.	.
8A 8AA\	.	.	.	.
.	.	56%3ff#X\	.	.
.	.	56%3ccc\JJ)	.	.
!!LO:LB:g=original
=229	=229	=229	=229	=229
4G 4GG/	.	(16bb-\LL	.	.
.	.	16gg\	.	.
.	.	16dd\	.	.
.	.	16b-\	.	.
8G 8GG/	.	16g\	.	.
.	.	16d\JJ)	.	.
=230	=230	=230	=230	=230
*	*	*^	*	*
4c 4C\	.	(16a/LL	4e-X\	.	.
.	.	16b-/J	.	.	.
.	.	8a/J)	.	.	.
[8cL 8C\	.	(16a/LL	[8e-\L	.	<
.	.	16b-/J	.	.	.
=231	=231	=231	=231	=231	=231
8c]J 8C\	.	8a/J)	8e-\J]	.	.
4c#X 4C#X\	.	(16b-/LL	4g 4e-X\	.	.
.	.	16cc/J	.	.	.
.	.	8b-/J)	.	.	.
=232	=232	=232	=232	=232	=232
4cn 4D\	.	(16dd/LL	4f#X\	.	.
.	.	16ee-X/J	.	.	.
.	.	8dd/)	.	.	.
8c 8D\	.	8dd/J	8f#\	.	.
*	*	*v	*v	*	*
=233	=233	=233	=233	=233
4B-: 4D: 4GG:\	.	4gg 4dd 4g\	.	f
8r	.	8r	.	.
!!LO:PB:g=original
=234	=234	=234	=234	=234
!	!	!	!	!LO:DY:rj
(4B-\	.	8c'/L	.	mp
.	.	(16en/L	.	.
.	.	16cc/	.	.
8C/)	.	16c/	.	.
.	.	16e/JJ)	.	.
=235	=235	=235	=235	=235
(4A-X\	.	8fn'/L	.	.
.	.	(16f/L	.	.
.	.	16cc/	.	.
[8C/)	.	16c/	.	.
.	.	16cc/JJ)	.	.
=236	=236	=236	=236	=236
*^	*	*^	*	*
4d-X/	4.C\_	.	(16b-/LL	4f\	.	.
.	.	.	16cc/J)	.	.	.
.	.	.	8b-/J	.	.	.
[8c/L	.	.	(16a-X/LL	[8f\L	.	.
.	.	.	16b-/J	.	.	.
=237	=237	=237	=237	=237	=237	=237
8c/]	4.C\]	.	8a-X/)	8f\J]	.	.
8B-'</	.	.	8g 8d-X'>/	4ryy	.	.
8A-X'</J	.	.	8fJ 8c'>/	.	.	.
*v	*v	*	*	*	*	*
*	*	*v	*v	*	*
=238	=238	=238	=238	=238
!	!	!LO:TUP:a	!	!
4G 4BB-\	.	(56%3dd-X\LL	.	.
.	.	56%3d-X\	.	.
.	.	56%3e\	.	.
.	.	56%3dd-\)	.	.
.	.	(56%3dd-\	.	.
8G 8BB-\	.	.	.	.
.	.	56%3ee\	.	.
.	.	56%3ddd-X\JJ)	.	.
=239	=239	=239	=239	=239
4F 4AA-X/	.	(16ccc\LL	.	.
.	.	16ff\	.	.
.	.	16cc\)	.	.
.	.	(16cc\	.	.
8F 8AA-/	.	16f\	.	.
.	.	16c\JJ)	.	.
!!LO:LB:g=original
=240	=240	=240	=240	=240
!	!	!LO:TUP:a	!	!
4C 4GG/	.	(56%3b-/LL	.	.
.	.	56%3c/	.	.
.	.	56%3e/	.	.
.	.	56%3b-/)	.	.
.	.	(56%3cc/	.	.
8C 8GG/	.	.	.	.
.	.	56%3ee/	.	.
.	.	56%3bb-/JJ)	.	.
=241	=241	=241	=241	=241
4C 4FF/	.	(16aa-X/LL	.	.
.	.	16ff/	.	.
.	.	16cc/)	.	.
.	.	(16a-X/	.	.
8C 8FF/	.	16f/	.	.
.	.	16c/JJ)	.	.
=242	=242	=242	=242	=242
*	*	*^	*	*
4En 4BB-\	.	(16g/LL	4d-X\	.	p
.	.	16a-X/J	.	.	.
.	.	8g/J)	.	.	<
[8EL [8BB-\	.	(16g/LL	[8d-\L	.	.
.	.	16a-/J	.	.	.
=243	=243	=243	=243	=243	=243
8E]J 8BB-\]	.	8g/J)	8d-\J]	.	.
4F 4BBn\	.	(16a-X/LL	4dn\	.	.
.	.	16b-/J	.	.	.
.	.	8a-/J)	.	.	.
=244	=244	=244	=244	=244	=244
4B-X 4E\	.	(16cc/LL	4g\	.	.
.	.	16dd-X/J	.	.	.
.	.	8cc/J)	.	.	.
[8B-L [8E\	.	(16cc/LL	[8g\L	.	.
.	.	16dd-/J	.	.	.
=245	=245	=245	=245	=245	=245
8B-]J 8E\]	.	8cc/J)	8g\J]	.	.
4Bn 4F\	.	(16dd-X/LL	4a-X\	.	.
.	.	16ee-X/J	.	.	.
.	.	8dd-/J)	.	.	.
*clefG2	*	*	*	*	*
!!LO:LB:g=original
=246	=246	=246	=246	=246	=246
4g 4e 4B-X/	.	(16gg/LL	4dd-X\	.	.
.	.	16aa-/J	.	.	.
.	.	8gg/J)	.	.	.
[8gL [8e [8B-/	.	(16gg/LL	[8dd-\L	.	.
.	.	16aa-/J	.	.	.
=247	=247	=247	=247	=247	=247
8g]J 8e] 8B-/]	.	8gg/J)	8dd-\J]	.	.
4a-X 4f 4Bn/	.	(16aa-X/LL	4ddn\	.	.
.	.	16bb-/J	.	.	.
.	.	8aa-/J)	.	.	.
=248	=248	=248	=248	=248	=248
4cc 4b-X 4e/	.	(16ccc/LL	4gg\	.	.
.	.	16ddd-X/J	.	.	.
.	.	8ccc/J)	.	.	.
[8ccL [8b- [8e/	.	(16ccc/LL	[8gg\L	.	.
.	.	16ddd-/J	.	.	.
=249	=249	=249	=249	=249	=249
8cc]J 8b-] 8e/]	.	8ccc/J)	8gg\J]	.	.
4dd-X 4b- 4f/	.	(16ddd-X/LL	4aa-X\	.	.
.	.	16eee/J	.	.	.
.	.	8ddd-/J)	.	.	.
*	*	*v	*v	*	*
=250	=250	=250	=250	=250
8ff 8dd-X 8b- 8g'\	.	8gggL 8fff 8ddd-X 8gg'\	.	ff
!	!	!LO:TUP:a:problem=klamra łukowa	!	!
8r	.	20fff\L	.	.
.	.	20ggg\	.	.
.	.	20fff\	.	.
8r	.	.	.	.
.	.	20ddd-\	.	.
.	.	20gg\JJ	.	.
=251	=251	=251	=251	=251
8ff 8dd-X 8b- 8g'\	.	8r	.	.
!	!	!LO:TUP:a:problem=klamra łukowa	!	!
8r	.	20ff\LL	.	.
.	.	20gg\	.	.
.	.	20ff\	.	.
8r	.	.	.	.
.	.	20dd-X\	.	.
.	.	20g\JJ	.	.
*clefF4	*	*	*	*
=252	=252	=252	=252	=252
8f 8d-X 8B- 8G'\	.	8r	.	.
!	!	!LO:TUP:a:problem=klamra łukowa	!	!
8r	.	20f/LL	.	.
.	.	20g/	.	.
.	.	20f/	.	.
8r	.	.	.	.
.	.	20d-X/	.	.
.	.	20G/JJ	.	.
!!LO:LB:g=original
=253	=253	=253	=253	=253
8BB- 8BBB-'/	.	8r	.	.
8r	.	8g 8f 8c#X 8G'/	.	.
8BB- 8BBB-'/	.	8r	.	.
=254	=254	=254	=254	=254
8BBn 8BBBn'/	.	8g 8f 8dn 8G/	.	mf
!	!	!LO:TUP:a:problem=klamra łukowa	!	!
8r	.	20fff\LL	.	.
.	.	20ggg\	.	.
.	.	20fff\	.	.
8r	.	.	.	.
.	.	20dddn\	.	.
.	.	20gg\JJ	.	.
*clefG2	*	*	*	*
=255	=255	=255	=255	=255
8ff 8bn 8g'\	.	8r	.	.
!	!	!LO:TUP:a:problem=klamra łukowa	!	!
8r	.	20ff\LL	.	.
.	.	20gg\	.	.
.	.	20ff\	.	.
8r	.	.	.	.
.	.	20dd\	.	.
.	.	20g\JJ	.	.
*clefF4	*	*	*	*
=256	=256	=256	=256	=256
8f 8Bn 8G'\	.	8r	.	.
!	!	!LO:TUP:a:problem=klamra łukowa	!	!LO:HP:t=dim.
8r	.	20f/LL	.	>
.	.	20g/	.	.
.	.	20f/	.	.
8r	.	.	.	.
.	.	20d/	.	.
.	.	20G/JJ	.	.
=257	=257	=257	=257	=257
4D 4DD/	.	8r	.	.
.	.	8gL 8f 8Bn 8G'/	.	.
8D-X 8DD-X'/	.	8g#XJ 8f 8B 8G#X'/	.	.
=258	=258	=258	=258	=258
8C 8CC'/	.	8a 8f 8c 8A'/	.	p
!	!	!LO:TUP:a:problem=klamra łukowa	!	!
8r	.	20ccc\LL	.	.
.	.	20ddd\	.	.
.	.	20ccc\	.	.
8r	.	.	.	.
.	.	20aa\	.	.
.	.	20ff\JJ	.	.
*clefG2	*	*	*	*
=259	=259	=259	=259	=259
8cc 8f'/	.	8r	.	.
!	!	!LO:TUP:b:problem=klamra łukowa	!	!
8r	.	20cc/LL	.	.
.	.	20dd/	.	.
.	.	20cc/	.	.
8r	.	.	.	.
.	.	20a/	.	.
.	.	20f/JJ	.	.
*clefF4	*	*	*	*
!!LO:LB:g=original
=260	=260	=260	=260	=260
8c 8F'\	.	8r	.	.
8r	.	(16c/LL	.	.
.	.	16d/J	.	.
8r	.	8c'/J)	.	.
=261	=261	=261	=261	=261
[4.C/	.	8A'/L	.	.
.	.	8c'/	.	.
.	.	8f'/J	.	.
=262	=262	=262	=262	=262
*^	*	*^	*	*
4B-/	4.C\_	.	(16g/LL	4d\	.	.
.	.	.	16a/J	.	.	.
.	.	.	8g/J)	.	.	.
[8B-/L	.	.	(16g/LL	[8d\L	.	.
.	.	.	16a/J	.	.	.
=263	=263	=263	=263	=263	=263	=263
8B-/J]	4.C\_	.	8g/J)	8d\J]	.	.
4F#X/	.	.	(16a/LL	4e-X\	.	<
.	.	.	16b-/J	.	.	.
.	.	.	8a/J)	.	.	.
=264	=264	=264	=264	=264	=264	=264
4G/	4.C\_	.	(16cc/LL	4en\	.	.
.	.	.	16dd/J	.	.	.
.	.	.	8cc/J)	.	.	.
[8G/L	.	.	(16b-/LL	[8e\L	.	.
.	.	.	16cc/J	.	.	.
=265	=265	=265	=265	=265	=265	=265
8G/J]	4.C\_	.	8b-/J)	8e\J]	.	.
4B-/	.	.	(16dd/LL	4e\	.	.
.	.	.	16ee/J	.	.	.
.	.	.	8dd/J)	.	.	.
=266	=266	=266	=266	=266	=266	=266
4Bn 4G#X/	4.C\_	.	(16bn/LL	4f\	.	.
.	.	.	16cc/J	.	.	.
.	.	.	8b/J)	.	.	.
[8B [8G#/L	.	.	(16dd/LL	[8f\L	.	.
.	.	.	16ee/J	.	.	.
!!LO:LB:g=original
=267	=267	=267	=267	=267	=267	=267
8B] 8G#/J]	4.C\_	.	8dd/J)	8f\J]	.	.
4Bn 4G#X/	.	.	(16bn/LL	4f\	.	.
.	.	.	16cc/J	.	.	.
.	.	.	8b/J)	.	.	.
=268	=268	=268	=268	=268	=268	=268
4c 4A/	4.C\_	.	(16dd/LL	4f\	.	.
.	.	.	16ee/J	.	.	.
.	.	.	8dd/J)	.	.	.
[8cL [8A/	.	.	(16cc/LL	[8f\L	.	.
.	.	.	16dd/J	.	.	.
=269	=269	=269	=269	=269	=269	=269
8c]J 8A/]	4.C\]	.	8cc/J)	8f\J]	.	.
4c 4A/	.	.	4ff 4f\	4ryy	.	.
=270	=270	=270	=270	=270	=270	=270
4d 4B-/	[4.C\	.	(16dd/LL	4f\	.	f
.	.	.	16ff/J	.	.	.
.	.	.	8dd/J)	.	.	.
[8cL [8A/	.	.	(16cc/LL	[8f\L	.	.
.	.	.	16ff/J	.	.	.
=271	=271	=271	=271	=271	=271	=271
8c]J 8A/]	4.C\_	.	8cc/J)	8f\J]	.	.
4d 4B-/	.	.	(16dd/LL	4f\	.	.
.	.	.	16ff/J	.	.	.
.	.	.	8dd/J)	.	.	.
=272	=272	=272	=272	=272	=272	=272
4c 4A/	4.C\_	.	(16cc/LL	4f\	.	.
.	.	.	16ff/J	.	.	.
.	.	.	8cc/J)	.	.	.
[8dL [8B-/	.	.	(16dd/LL	[8f\L	.	.
.	.	.	16ff/J	.	.	.
=273	=273	=273	=273	=273	=273	=273
8d]J 8B-/]	4.C\]	.	8dd/J)	8f\J]	.	.
4c 4A/	.	.	(16cc/LL	4f\	.	.
.	.	.	16ff/J	.	.	.
.	.	.	8cc/J)	.	.	.
*v	*v	*	*	*	*	*
*	*	*v	*v	*	*
=274	=274	=274	=274	=274
4B- 4F 4C\	.	(16gg\LL	.	.
.	.	16g\	.	.
.	.	16cc\	.	.
.	.	16dd\	.	.
*	*	*	*above	*
8B- 8F 8C\	.	16gg\)	5	.
.	.	(16gg\JJ	1	.
!!LO:PB:g=original
=275	=275	=275	=275	=275
4B- 4F 4C\	.	16ggg\LL	.	.
.	.	16ddd\	.	.
.	.	16ccc\	.	.
.	.	16gg\	.	.
8B- 8F 8C\	.	16dd\	.	.
.	.	16cc\JJ)	.	.
=276	=276	=276	=276	=276
4B- 4E 4C\	.	(16gg\LL	.	.
.	.	16g\	.	.
.	.	16cc\	.	.
.	.	16ee\	.	.
8B- 8E 8C\	.	16gg\)	.	.
.	.	(16gg\JJ	.	.
=277	=277	=277	=277	=277
4B- 4E 4C\	.	16ggg\LL	.	.
.	.	16eee\	.	.
.	.	16ccc\	.	.
.	.	16gg\	.	.
8B- 8E 8C\	.	16ee\	.	.
.	.	16cc\JJ)	.	.
=278	=278	=278	=278	=278
8A: 8C: 8FF':\	.	8ff: 8cc: 8f':\	.	.
!	!	!LO:TUP:b:problem=klamra łukowa	!	!
8r	.	20ccc\LL	.	.
.	.	20ddd\	.	.
.	.	20ccc\	.	.
8r	.	.	.	.
.	.	20aa\	.	.
.	.	20ff\JJ	.	.
*clefG2	*	*	*	*
=279	=279	=279	=279	=279
8cc 8f'/	.	8r	.	.
!	!	!LO:TUP:b:problem=klamra łukowa	!	!
8r	.	20cc/LL	.	.
.	.	20dd/	.	.
.	.	20cc/	.	.
8r	.	.	.	.
.	.	20a/	.	.
.	.	20f/JJ	.	.
*clefF4	*	*	*	*
=280	=280	=280	=280	=280
8c 8F'\	.	8r	.	.
8r	.	(16c/LL	.	.
.	.	16d/J	.	.
8r	.	8c/J)	.	.
!!LO:LB:g=original
=281	=281	=281	=281	=281
8C'/	.	8r	.	.
8r	.	8f 8c 8A'/	.	.
8C'/	.	8r	.	.
=282	=282	=282	=282	=282
8A 8C 8FF'\	.	8aaa: 8fff: 8ccc: 8aa':\	.	.
!	!	!LO:TUP:a:problem=klamra łukowa	!	!
8r	.	20aaa\LL	.	.
.	.	20bbb-\	.	.
.	.	20aaa\	.	.
8r	.	.	.	.
.	.	20fff\	.	.
.	.	20ccc\JJ	.	.
*clefG2	*	*	*	*
=283	=283	=283	=283	=283
8aa 8ff 8cc'\	.	8r	.	.
!	!	!LO:TUP:a:problem=klamra łukowa	!	!
8r	.	20aa\LL	.	.
.	.	20bb-\	.	.
.	.	20aa\	.	<
8r	.	.	.	.
.	.	20ff\	.	.
.	.	20cc\JJ	.	.
=284	=284	=284	=284	=284
8a 8f 8c'/	.	8r	.	.
!	!	!LO:TUP:b:problem=klamra łukowa	!	!
8r	.	20a/LL	.	.
.	.	20b-/	.	.
.	.	20a/	.	.
8r	.	.	.	.
.	.	20f/	.	.
.	.	20c/JJ	.	.
*clefF4	*	*	*	*
=285	=285	=285	=285	=285
8C'/	.	8r	.	.
8r	.	8a 8f 8c'/	.	.
8C'/	.	8r	.	.
=286	=286	=286	=286	=286
*	*	*8va	*	*
8A: 8C: 8FF':\	.	8cccc: 8aaa: 8fff: 8ccc:\	.	.
!	!	!LO:TUP:a:problem=klamra łukowa	!	!
8r	.	20cccc\LL	.	.
.	.	20dddd\	.	.
.	.	20cccc\	.	.
8r	.	.	.	.
.	.	20aaa\	.	.
.	.	20fff\JJ	.	.
*clefG2	*	*X8va	*	*
=287	=287	=287	=287	=287
8ccc 8ff'\	.	8r	.	.
!	!	!LO:TUP:a:problem=klamra łukowa	!	!
8r	.	20ccc\LL	.	.
.	.	20ddd\	.	.
.	.	20ccc\	.	.
8r	.	.	.	.
.	.	20aa\	.	.
.	.	20ff\JJ	.	.
!!LO:LB:g=original
=288	=288	=288	=288	=288
8cc 8f'/	.	8r	.	.
!	!	!LO:TUP:b:problem=klamra łukowa	!	!
8r	.	20cc/LL	.	.
.	.	20dd/	.	.
.	.	20cc/	.	.
8r	.	.	.	.
.	.	20a/	.	.
.	.	20f/JJ	.	.
*clefF4	*	*	*	*
=289	=289	=289	=289	=289
8c 8C'\	.	8r	.	.
8r	.	8cc 8a 8f'/	.	.
8C'/	.	8r	.	.
=290	=290	=290	=290	=290
*	*	*8va	*	*
8A: 8C: 8FF':\	.	8ffff: 8cccc: 8aaa: 8fff:\	.	ff
8r	.	(16ffff\LL	.	.
.	.	16gggg\	.	.
8r	.	16ffff\	.	.
.	.	16cccc\JJ)	.	.
*clefG2	*	*X8va	*	*
=291	=291	=291	=291	=291
8ccc 8aa 8ff'\	.	8r	.	.
8r	.	(16fff\LL	.	.
.	.	16ggg\	.	.
8r	.	16fff\	.	.
.	.	16ccc\JJ)	.	.
=292	=292	=292	=292	=292
8ddd-X 8bb- 8ff'\	.	8r	.	.
8r	.	(16fff\LL	.	.
.	.	16ggg\	.	.
8r	.	16fff\	.	.
.	.	16gg\JJ)	.	.
=293	=293	=293	=293	=293
8dd-X 8b- 8f'/	.	8r	.	.
8r	.	(16ff\LL	.	.
.	.	16gg\	.	.
8r	.	16ff\	.	.
.	.	16g\JJ)	.	.
=294	=294	=294	=294	=294
8cc 8a 8f'/	.	8r	.	.
8r	.	(16ff\LL	.	.
.	.	16gg\	.	.
8r	.	16ff\	.	.
.	.	16cc\JJ)	.	.
*clefF4	*	*	*	*
!!LO:LB:g=original
=295	=295	=295	=295	=295
8c 8A 8F'\	.	8r	.	.
8r	.	(16f/LL	.	.
.	.	16g/	.	.
8r	.	16f/	.	.
.	.	16c/JJ)	.	.
=296	=296	=296	=296	=296
8d-X 8B- 8F'\	.	8r	.	.
8r	.	(16f/LL	.	.
.	.	16g/	.	.
8r	.	16f/	.	.
.	.	16G/JJ)	.	.
*	*	*clefF4	*	*
=297	=297	=297	=297	=297
8D-X 8BB- 8FF'/	.	8r	.	.
8r	.	(16F\LL	.	.
.	.	16G\	.	.
8r	.	16F\	.	.
.	.	16GG\JJ)	.	.
=298	=298	=298	=298	=298
8FFL 8FFF'/	.	16r	.	.
.	.	(16C/LL	.	.
8FF 8FFF'/	.	16F/	.	.
.	.	16A/	.	.
8FFJ 8FFF'/	.	16c/)	.	.
.	.	(16F/	.	.
=299	=299	=299	=299	=299
8FFL 8FFF'/	.	16A/	.	.
.	.	16c/	.	.
8FF 8FFF'/	.	16d/)	.	.
.	.	(16A/	.	.
8FFJ 8FFF'/	.	16c/	.	.
.	.	16d/	.	.
*	*	*clefG2	*	*
=300	=300	=300	=300	=300
8FFL 8FFF'\	.	16f/)	.	.
.	.	(16c/	.	.
8A 8F 8C'\	.	16f/	.	.
.	.	16a/	.	.
8AJ 8F 8C'\	.	16cc/)	.	.
!	!	!LO:TX:b:t=P:problem=początek łuku na dole	!	!
.	.	(16f/JJ	.	.
*clefG2	*	*	*	*
!!LO:LB:g=original
=301	=301	=301	=301	=301
8cL 8A 8F'\	.	16a\LL	.	.
.	.	16cc\	.	.
8f 8c 8A'\	.	16dd\)	.	.
.	.	(16a\	.	.
8f 8c 8A'\	.	16cc\	.	.
.	.	16dd\	.	<
=302	=302	=302	=302	=302
8a 8f 8c'\	.	16ff\)	.	.
.	.	(16cc\	.	.
8a 8f 8c'\	.	16ff\	.	.
.	.	16aa\	.	.
8cc 8a 8f'\	.	16ccc\)	.	.
.	.	(16ff\	.	.
=303	=303	=303	=303	=303
8cc 8a 8f'\	.	16aa\	.	.
.	.	16ccc\	.	.
8ff 8cc 8a'\	.	16ddd\)	.	.
.	.	(16aa\	.	.
8ff 8cc 8a'\	.	16ccc\	.	.
.	.	16ddd\	.	.
=304	=304	=304	=304	=304
8aa 8ff 8cc'\	.	16fff\)	.	.
.	.	(16ccc\	.	.
8aa 8ff 8cc'\	.	16fff\	.	.
.	.	16aaa\	.	.
8ccc 8aa 8ff'\	.	16cccc\)	.	.
.	.	(16fff\	.	.
=305	=305	=305	=305	=305
*	*	*8va	*	*
8ccc 8aa 8ff'\	.	16aaa\	.	.
.	.	16cccc\	.	.
*8va	*	*	*	*
8fff 8ccc 8aa'\	.	16dddd\)	.	.
.	.	(16aaa\	.	.
8fffJ 8ccc 8aa'\	.	16cccc\	.	.
.	.	16dddd\JJ	.	.
=306	=306	=306	=306	=306
4aaa 4fff 4ccc\	.	4ffff\)	.	fff
*X8va	*	*	*	*
8r	.	8r	.	.
=307	=307	=307	=307	=307
4ee 4dd-X 4f/	.	4aaa 4ddd-X 4bb-\	.	.
8r	.	8r	.	.
!!LO:LB:g=original
=308	=308	=308	=308	=308
4ff 4cc 4f\	.	4fff 4ccc 4aa\	.	.
*	*	*X8va	*	*
8r	.	8r	.	.
*clefF4	*	*	*	*
=309	=309	=309	=309	=309
4e 4d-X 4F\	.	4aa 4dd-X 4b-\	.	.
8r	.	8r	.	.
=310	=310	=310	=310	=310
4f 4c 4F\	.	4ff 4cc 4a\	.	.
8r	.	8r	.	.
=311	=311	=311	=311	=311
4E 4D-X 4FF/	.	4a 4d-X 4B-/	.	.
8r	.	8r	.	.
=312	=312	=312	=312	=312
4.F 4.C 4.FF/	.	4.f 4.c 4.A/	.	.
=313	=313	=313	=313	=313
4r	.	4r	.	.
8r	.	8r	.	.
*clefG2	*	*	*	*
=314	=314	=314	=314	=314
*	*	*8va	*	*
4.ff 4.cc 4.f\	.	4.aaa 4.fff 4.ccc 4.aa\	.	.
*	*	*X8va	*	*
=315	=315	=315	=315	=315
4r	.	4r	.	.
8r	.	8r	.	.
*clefF4	*	*clefF4	*	*
=316	=316	=316	=316	=316
.	.	8qF/	.	.
[4.FF [4.FFF/	.	[4.F\	.	fff
=317	=317	=317	=317	=317
8FF] 8FFF/]	.	8F\]	.	.
8r	.	8r	.	.
8r	.	8r	.	.
==	==	==	==	==
*-	*-	*-	*-	*-
!!!system-decoration: {(*)}
!!!RDF**kern: > = above
!!!RDF**kern: < = below
!!!RDF**kern: N = linked
!!!ENC: Andrzej Gręziak
!!!END: 2022-12-01
!!!ENC: Andrzej Kubiczek
!!!END: 2022-12-05
!!!YEC: Copyright 2022 Narodowy Instytut Fryderyka Chopina (https://polishscores.org)
!!!YEM: License CC-BY-4.0 (https://creativecommons.org/licenses/by/4.0)
